X: 10653
M: C|
L: 1/8
K: D
(dB) |\
|: (ef) |\
f2d2 e2(dc) | F2A2 BAGA | B2E2 EFGE | B2E2 EFGE |\
|: (dB) |\
|: (ag) |\
f2d2 fgag | f2d2 efge | defg abag | f2d2 d2de |\
fdfd ecec | dcBA BAGF | GEFD EFGE | F2D2 D2 :|


